!!!SOCIAL_FUNCTION:	love songs
!!!PDT:	1913
!!!OTL: No_113_Love_Song.krn
!!!REG: Great_Lakes
!!!LANG: Non-Tone
!!!LING_GROUP: Algonquin
**kern
*staff1
=1-
*clefG2
*k[b-e-a-]
*M3/4
4dd\
4b-\
4b-\
=2||
*M2/4
4dd\
4cc\
=3||
*M3/4
4dd\
2cc\
=4
[2.b-\
=5
2b-\]
4a-/
=6||
*M2/4
4b-\
4a-/
=7
2f/
=8
[2e-/
=9
2e-/_
=10
2e-/]
=11||
*M3/4
4cc\
4b-\
4b-\
=12||
*M2/4
4cc\
4b-\
=13
4b-\
4a-/
=14||
*M3/4
[2.f/
=15||
*M2/4
2f/]
=16
4f/
4e-/
=17
2c/
=18
[2B-/
=19
2B-/_
=20
2B-/]
=21
4B-/
4B-/
=22
4B-/
4B-/
=23
4B-/
4b-\
=24
2g/
=25
[2f/
=26
(4f/]
4e-/)
=27
4f/
4e-/
=28
2c/
=29
[2B-/
=30
2B-/_
=31
2B-/]
=32
2B-/
=33
2cc\
=34
[2b-\
=35
(4b-\]
4a-/)
=36
4b-\
4a-/
=37
2f/
=38
[2e-/
=39
2e-/_
=40
2e-/]
=41
4cc\
4b-\
=42
4cc\
4b-\
=43||
*M3/4
4b-\
2a-/
=44||
*M2/4
[2f/
=45
2f/]
=46
4f/
4e-/
=47
2c/
=48
[2B-/
=49
2B-/_
=50
2B-/]
=51
2B-/
=52
2f/
=53
[2e-/
=54||
*M3/4
4e-/]
4c/
4e-/
=55||
*M2/4
2c/
=56
[2B-/
=57
2B-/_
=58
2B-/]
==
*-
